X: 3300
T: Norsk Vals
B:[[Notböcker/Melodier til gamle danske Almuedanse for Violin solo]]
O:Danmark
Z:Søren Bak Vestergaard
M: 3/4
L: 1/8
K: C
G2|GeeB c2|GeeB c2|Bddffa|agge e2|GeeB c2|\
GeeB c2|Bcdefd|c2 z2:| |:(ge)|faad f2|eggc e2|dffB d2|\
(cd)efge|faad f2|eggc e2|dffB d2|c2 z2:| |:!upbow!G2|c2 c2 d2|\
e2 e2 f2|e2 e2 f2|g3 (!upbow!fef)|faad f2|eggc e2|dffB d2|c2 z2:|
(:musicend:)
(:music:)
